svgs/solid/diagram-sankey.svg

<svg xmlns="http://www.w3.org/2000/svg" viewBox="0 0 640 512"><!--! Font Awesome Pro 6.0.0-alpha3 by @fontawesome - https://fontawesome.com License - https://fontawesome.com/license (Commercial License) --><path d="M404.2 160l-57.6 96H592C600.8 256 608 263.2 608 272v32c0 8.836-7.164 16-16 16H276.8l38.4 64H576c17.67 0 32 14.33 32 32v32c0 17.67-14.33 32-32 32H297.1c-22.48 0-43.31-11.79-54.88-31.07L164.8 320H64c-17.67 0-32-14.33-32-32V224c0-17.67 14.33-32 32-32h171.8l77.36-128.9C324.7 43.79 345.5 32 368 32H576c17.67 0 32 14.33 32 32v64c0 17.67-14.33 32-32 32H404.2z"/></svg>

<svg xmlns="http://www.w3.org/2000/svg" viewBox="0 0 640 512"><!-- Font Awesome Pro 6.0.0-alpha2 by @fontawesome - https://fontawesome.com License - https://fontawesome.com/license (Commercial License) --><path d="M404 160L347 256H592C601 256 608 263 608 272V304C608 313 601 320 592 320H277L315 384H576C594 384 608 398 608 416V448C608 466 594 480 576 480H297C275 480 254 468 242 449L165 320H64C46 320 32 306 32 288V224C32 206 46 192 64 192H236L313 63C325 44 346 32 368 32H576C594 32 608 46 608 64V128C608 146 594 160 576 160H404Z"/></svg>
